svg/OSM-icons/amenity #7bffff °373737 !label=enamenities,deEinrichtungen/12313;amenity=watering_place;[addr];[contact];!label=enwatering place,deHeilbad.svg

<svg xmlns="http://www.w3.org/2000/svg" viewBox="0 0 580 580" enable-background="new 0 0 580 580"><path fill="#111" stroke="#eee" stroke-width="3.408" d="m66.28 1.768c-41.34 0-64.57 21.371-64.57 65.04v450.12c0 40.844 20.894 62.23 62.19 62.23h452.02c41.31 0 62.23-20.316 62.23-62.23v-450.12c0-42.601-20.923-65.04-63.52-65.04-.003 0-448.49-.143-448.35 0z"/><g fill="#fff"><path d="m478.68 101.32c-50.4-50.4-117.41-78.15-188.68-78.15-71.27 0-138.28 27.755-188.68 78.15s-78.15 117.41-78.15 188.68 27.755 138.28 78.15 188.68 117.4 78.15 188.68 78.15c71.27 0 138.28-27.754 188.68-78.15 50.4-50.4 78.15-117.4 78.15-188.68s-27.755-138.28-78.15-188.68m-188.68 432.04c-134.19 0-243.36-109.17-243.36-243.36s109.17-243.36 243.36-243.36c134.19 0 243.36 109.17 243.36 243.36s-109.17 243.36-243.36 243.36"/><path d="m402.6 375.62c.008-.631.009-2.383-.129-5.157-.015-.313-.033-.623-.051-.935-.034-.618-.076-1.279-.124-1.984-.012-.126-.018-.253-.027-.378-.915-12.646-4.295-38.21-16.591-71.36-17.8-47.981-95.38-204.3-95.38-204.3l-.146.37-.146-.37c0 0-77.58 156.32-95.38 204.3-9.223 24.86-13.425 45.44-15.338 59.53-1.231 6.67-1.88 13.545-1.88 20.57 0 62.19 50.41 112.6 112.6 112.6 62.19 0 112.6-50.41 112.6-112.6-.0001-.093-.005-.186-.005-.28m-127.2 80.66c-36.12 0-65.39-29.28-65.39-65.39 0-13.399 4.04-25.851 10.95-36.22-2.092 6.771-3.222 13.964-3.222 21.422 0 40.02 32.443 72.46 72.46 72.46 7.458 0 14.652-1.13 21.422-3.222-10.368 6.915-22.822 10.952-36.22 10.952"/></g></svg>

<?xml version="1.0" encoding="utf-8"?>
<!-- Generator: Adobe Illustrator 15.0.0, SVG Export Plug-In . SVG Version: 6.00 Build 0)  -->
<!DOCTYPE svg PUBLIC "-//W3C//DTD SVG 1.1//EN" "http://www.w3.org/Graphics/SVG/1.1/DTD/svg11.dtd">
<svg version="1.1" xmlns="http://www.w3.org/2000/svg" xmlns:xlink="http://www.w3.org/1999/xlink" x="0px" y="0px" width="580px"
	 height="580px" viewBox="0 0 580 580" enable-background="new 0 0 580 580" xml:space="preserve">
<g id="Layer_2">
	<g id="g1327">
		<path id="path1329" fill="#111111" stroke="#EEEEEE" stroke-width="3.408" d="M66.275,1.768
			c-41.335,0-64.571,21.371-64.571,65.036v450.123c0,40.844,20.894,62.229,62.192,62.229H515.92
			c41.307,0,62.229-20.316,62.229-62.229V66.804c0-42.601-20.923-65.036-63.522-65.036C514.624,1.768,66.133,1.625,66.275,1.768z"/>
	</g>
</g>
<g id="svg2" inkscape:version="0.46" sodipodi:docname="waste_bin.svg" sodipodi:version="0.32" xmlns:dc="http://purl.org/dc/elements/1.1/" xmlns:cc="http://creativecommons.org/ns#" xmlns:sodipodi="http://sodipodi.sourceforge.net/DTD/sodipodi-0.dtd" xmlns:svg="http://www.w3.org/2000/svg" xmlns:rdf="http://www.w3.org/1999/02/22-rdf-syntax-ns#" xmlns:inkscape="http://www.inkscape.org/namespaces/inkscape" inkscape:output_extension="org.inkscape.output.svg.inkscape">
	<g>
		<path fill="#FFFFFF" d="M478.677,101.323C428.278,50.926,361.272,23.171,290,23.171c-71.273,0-138.279,27.755-188.677,78.152
			S23.171,218.728,23.171,290s27.755,138.279,78.152,188.677S218.727,556.829,290,556.829c71.272,0,138.278-27.754,188.677-78.152
			c50.397-50.397,78.152-117.404,78.152-188.677S529.074,151.721,478.677,101.323z M290,533.363
			C155.809,533.363,46.638,424.19,46.638,290S155.809,46.638,290,46.638c134.19,0,243.363,109.172,243.363,243.362
			S424.19,533.363,290,533.363z"/>
	</g>
	<path fill="#FFFFFF" d="M402.596,375.62c0.008-0.631,0.009-2.383-0.129-5.157c-0.015-0.313-0.033-0.623-0.051-0.935
		c-0.034-0.618-0.076-1.279-0.124-1.984c-0.012-0.126-0.018-0.253-0.027-0.378c-0.915-12.646-4.295-38.214-16.591-71.362
		C367.874,247.823,290.292,91.5,290.292,91.5l-0.146,0.37L290,91.5c0,0-77.582,156.323-95.381,204.304
		c-9.223,24.86-13.425,45.444-15.338,59.526c-1.231,6.67-1.88,13.545-1.88,20.57c0,62.188,50.413,112.6,112.6,112.6
		c62.187,0,112.6-50.412,112.6-112.6C402.6,375.807,402.596,375.714,402.596,375.62z M275.397,456.276
		c-36.116,0-65.393-29.277-65.393-65.393c0-13.399,4.037-25.851,10.95-36.223c-2.092,6.771-3.222,13.964-3.222,21.422
		c0,40.02,32.443,72.464,72.464,72.464c7.458,0,14.652-1.13,21.422-3.222C301.25,452.239,288.796,456.276,275.397,456.276z"/>
</g>
</svg>
